raw/symbols/fxs.svg

<svg width="42" height="42" viewBox="0 0 42 42" fill="none" xmlns="http://www.w3.org/2000/svg">
<path d="M21 41C32.0457 41 41 32.0457 41 21C41 9.9543 32.0457 1 21 1C9.9543 1 1 9.9543 1 21C1 32.0457 9.9543 41 21 41Z" fill="#222222"/>
<path d="M12.314 9.8176L11 11.1316L12.6624 12.794L14.3285 14.4564L14.1906 14.863C14.0127 15.3966 13.9401 15.843 13.9401 16.4347C13.9401 18.3621 14.9492 20.0027 16.735 20.9791C17.4537 21.3711 18.6878 21.814 20.0563 22.1661C22.7278 22.8521 23.1379 22.9719 23.6642 23.2187C24.3829 23.5599 24.7387 23.9301 24.8875 24.4891C24.9528 24.7323 24.9492 25.2768 24.8838 25.5381C24.7169 26.1733 24.176 26.8122 23.5045 27.1606C22.5971 27.6361 21.0182 27.7668 19.8276 27.4619C19.3848 27.353 18.7568 27.0445 18.441 26.7867C17.7985 26.2568 17.2976 25.3421 17.0762 24.2858C17.0399 24.1189 17.0109 23.9773 17.0073 23.9701C16.9964 23.9555 13.2795 24.3185 13.2613 24.3403C13.2468 24.3512 13.2577 24.5036 13.2831 24.6779C13.3993 25.5163 13.6933 26.5145 14.0309 27.2078L14.2269 27.6107L12.6116 29.2259L11 30.8412L12.3176 32.1588L13.6316 33.4728L15.2976 31.8067L16.9601 30.1443L17.2468 30.2641C18.7641 30.9029 21.0399 31.1025 23.2468 30.7831C23.7768 30.7069 24.5426 30.5254 24.9456 30.3766L25.1851 30.2895L26.7786 31.8829L28.3684 33.4728L29.6824 32.1588L31 30.8412L29.5227 29.3639L28.049 27.8902L28.2341 27.5127C28.6189 26.7396 28.7786 26.0826 28.8113 25.1788C28.8693 23.4546 28.4229 22.1552 27.4065 21.0844C26.3466 19.9701 25.1524 19.4401 21.7804 18.5907C19.4029 17.9955 18.3793 17.5853 17.9728 17.0699C17.5699 16.5617 17.5336 15.8503 17.8857 15.3312C18.0889 15.0299 18.5898 14.7069 19.1343 14.5254C19.7477 14.3185 20.7786 14.2241 21.5445 14.304C23.1597 14.4746 23.9728 15.1642 24.3285 16.6742C24.3721 16.8593 24.412 17.0154 24.4156 17.0227C24.4229 17.0336 27.0508 16.9392 27.8385 16.8993L28.2886 16.8775L28.2632 16.5617C28.2123 15.9192 28.0853 15.3457 27.853 14.7468L27.726 14.4093L29.363 12.7686L31 11.1316L29.686 9.81397L28.3684 8.5L26.7132 10.1552L25.0544 11.814L24.6515 11.6615C23.6606 11.2913 22.7024 11.1279 21.2904 11.088C19.7477 11.0481 18.3938 11.2477 17.3557 11.6688L16.971 11.8249L15.3013 10.1624L13.6316 8.5L12.314 9.8176Z" fill="white"/>
</svg>

<svg xmlns="http://www.w3.org/2000/svg" width="42" height="42" fill="none"><path fill="#222" d="M21 41c11.046 0 20-8.954 20-20S32.046 1 21 1 1 9.954 1 21s8.954 20 20 20Z"/><path fill="#fff" d="M12.314 9.818 11 11.132l1.662 1.662 1.666 1.662-.137.407c-.178.534-.25.98-.25 1.572 0 1.927 1.008 3.568 2.794 4.544.719.392 1.953.835 3.321 1.187 2.672.686 3.082.806 3.608 1.053.719.34 1.075.711 1.223 1.27.066.243.062.788-.003 1.05-.167.634-.708 1.273-1.38 1.622-.907.475-2.486.606-3.676.3-.443-.108-1.071-.416-1.387-.674-.642-.53-1.143-1.445-1.365-2.501-.036-.167-.065-.309-.069-.316-.01-.014-3.728.349-3.746.37-.014.011-.003.164.022.338.116.838.41 1.837.748 2.53l.196.403-1.615 1.615L11 30.84l1.318 1.318 1.314 1.314 1.666-1.666 1.662-1.663.287.12c1.517.639 3.793.838 6 .52.53-.077 1.296-.259 1.699-.407l.24-.087 1.593 1.593 1.59 1.59 1.313-1.314L31 30.84l-1.477-1.477-1.474-1.474.185-.377c.385-.773.545-1.43.577-2.334.058-1.724-.388-3.024-1.404-4.095-1.06-1.114-2.255-1.644-5.627-2.493-2.377-.596-3.4-1.006-3.807-1.521-.403-.508-.44-1.22-.087-1.739.203-.301.704-.624 1.248-.806.614-.207 1.645-.3 2.41-.221 1.616.17 2.429.86 2.784 2.37.044.185.084.341.088.349.007.01 2.635-.084 3.422-.124l.45-.021-.025-.316a6.221 6.221 0 0 0-.41-1.815l-.127-.338 1.637-1.64L31 11.132l-1.314-1.318L28.368 8.5l-1.655 1.655-1.659 1.659-.402-.152c-.991-.37-1.95-.534-3.362-.574-1.542-.04-2.896.16-3.934.58l-.385.157-1.67-1.663-1.67-1.662-1.317 1.318Z"/></svg>
